X: 1784
T: Siyah Ebrûlerin Durûben Çatma
C: Lem´i Atlı
O: Turkey
F: http://compmusic.upf.edu/node/140
N: ussak--sarki--aksak--siyah_ebrulerin--lemi_atli
N: makam= ussak
N: form= sarki
N: usul= aksak = 9/8
M: 9/8
L: 1/16
K: C _2/4B   
Q: 1/4=176
%%MIDI tuningsystem comma53
ABAG A2d2 c2d2 c4 B2 | A3/2B/ AGA2 c2B2 A2G2 ^FED2  | 
w:  ARANAĞME  |   | 
^F2G2 A2B2 c2d2 B4 A2 | A6 c2B2 c2A6  | \
w:   |   | 
ABAG A2d2 c2d2 c4 B2 | 
w:  ARANAĞME  | 
A3/2B/ AGA2 c2B2 A2G2 ^FED2  | ^F2G2 A2B2 c2d2 B4 A2 | \
w:   |   | 
A6 c2B2 c2A6  | 
w:   | 
c2d6 c2B2 B4 BA | A16G2  | c2B4c2 B2A2 A6 | \
w:  Si yah  eb *  rû le  |  rin   |  du rû *  ben  *  çat  | 
A6 c2B3A.G6  | G4 c4 c4 B4 A2 | 
w:  ma    |  Gam zen_ ok la rı  | 
e16d2  | z2d4e2 e2d2 d2c2 B2 | c6 d2c2 d2e6  | \
w:  nı   |  â şı ka  *  at  |  ma    | 
g2g2 e2e2 e4 e4 d2 | 
w:  Sa na  *  gö nül  ver  | 
d12e2 d2c2  | d2.e6 e2d2 d2c2 B2 | c6 d2c2 BAB6  | \
w:  dim   |  be ni  ağ *  lat  |  ma    | 
c2d4d2 c2B2 B4 A2 | 
w:  Be nim  gö züm  *  nû  | 
A6 c2B3AG6  | c4 B2c2 B2A2 A6 | A6 c2B2 c2A6  | \
w:  ru   |  gön lüm  *  sü *  rû  |  ru   SAZ  | 
ABAG A2d2 c2d2 c4 B2 | 
w:  ARANAĞME  | 
A3/2B/ AGA2 c2B2 A2G2 ^FED2  | ^F2G2 A2B2 c2d2 B4 A2 | \
w:   |   | 
A6 c2B2 c2A6  | 
w:   | 
ABAG A2d2 c2d2 c4 B2 | A3/2B/ AGA2 c2B2 A2G2 ^FED2  | 
w:  ARANAĞME  |   | 
^F2G2 A2B2 c2d2 B4 A2 | A6 c2B2 c2A6  | \
w:   |   | 
c2d6 c2B2 B4 BA | A16G2  | 
w:  Ö ğüt tür  *  ver di  |  ğim   | 
z2c2 B2c2 B2A2 A6 | A6 c2B3A.G6  | G4 c4 c4 B4 A2 | \
w:  tut  *  be nim  *  sö  |  züm    |  Se ve rim  de me  | 
e16d2  | z2d4e2 e2d2 d2c2 B2 | 
w:  ye   |  tut ma dı  *  yü  | 
c6 d2c2 d2e6  | g2g2 e2e2 e4 e4 d2 | \
w:  züm    |  Ah_ e *  fen dim  be  | 
d12e2 d2c2  | d2.e6 e2d2 d2c2 B2 | 
w:  nim   |  a  i ki  *  gö  | 
c6 d2c2 BAB6  | c2d4d2 c2B2 B4 A2 | A6 c2B3AG6  | \
w:  züm    |  Be nim  gö züm  *  nû  |  ru   | 
c4 B2c2 B2A2 A6 | 
w:  gön lüm  *  sü *  rû  | 
A6 c2B2 c2A6  | |


